src/assets/wallet-ok.svg

<svg height="21" viewBox="0 0 25 21" width="25" xmlns="http://www.w3.org/2000/svg"><g fill="#fff"><path d="m23.0972772 8.4960396h-.4737623v-.94851485c0-1.53712871-1.0779703-2.825-2.5173268-3.1519802l-.0029703-1.86782178c0-1.37376237-1.1183168-2.49133663-2.4925742-2.49133663h-.1170792l-13.19529707 4.27648515h-.24727723c-1.78316832 0-3.23366337 1.4509901-3.23366337 3.23465346v5.13242575c.44554456-.3410891.94554456-.6133663 1.48514852-.8017327v-4.33069305c0-.96633663.78316831-1.74950495 1.74851485-1.74950495h15.3386139c.9663366 0 1.7485148.78316832 1.7485148 1.74950495v.94851485h-2.7012376c-.9982673 0-1.8103961.81212872-1.8103961 1.8101485v3.4762376c0 .9985149.8121288 1.8106436 1.8103961 1.8106436h2.7014851v.9485149c0 .9660891-.7821782 1.7495049-1.7485148 1.7495049h-10.14826734c-.13960396.5316832-.36014852 1.0311881-.64603961 1.4851485h10.79430695c1.7834158 0 3.2336634-1.4509901 3.2336634-3.2346534v-.9485149h.4737623c.9982674 0 1.8103961-.8121287 1.8103961-1.8106436v-3.4762376c0-.99801978-.8121287-1.8101485-1.8103961-1.8101485zm.3252476 5.2863861c0 .179703-.1460397.3254951-.3252476.3254951h-4.660396c-.1794555 0-.3252475-.1460396-.3252475-.3254951v-3.4762376c0-.1792079.1460396-.32499998.3252475-.32499998h4.660396c.1794555 0 .3252476.14579208.3252476.32499998z"/><path d="m4.06361386 13.0643564c-2.13242574 0-3.86757426 1.7351486-3.86757426 3.8678218 0 2.1324258 1.73514852 3.8675743 3.86757426 3.8675743 2.13292079 0 3.86806931-1.7351485 3.86806931-3.8675743 0-2.1326732-1.73514852-3.8678218-3.86806931-3.8678218zm-.50618812 6.3836634-2.33688119-2.3371287 1.05-1.05 1.28688119 1.2868812 2.29975248-2.299505 1.05 1.05z"/></g></svg>

<?xml version="1.0" encoding="UTF-8"?>
<svg width="25px" height="21px" viewBox="0 0 25 21" version="1.1" xmlns="http://www.w3.org/2000/svg" xmlns:xlink="http://www.w3.org/1999/xlink">
    <!-- Generator: Sketch 46 (44423) - http://www.bohemiancoding.com/sketch -->
    <title>wallet</title>
    <desc>Created with Sketch.</desc>
    <defs></defs>
    <g id="Welcome" stroke="none" stroke-width="1" fill="none" fill-rule="evenodd">
        <g id="MVP-Minimal-version" transform="translate(-702.000000, -668.000000)" fill-rule="nonzero" fill="#FFFFFF">
            <g id="#3-Wallet-&amp;-Confirm" transform="translate(316.000000, 189.000000)">
                <g id="wallet" transform="translate(386.000000, 479.000000)">
                    <path d="M23.0972772,8.4960396 L22.6235149,8.4960396 L22.6235149,7.54752475 C22.6235149,6.01039604 21.5455446,4.72252475 20.1061881,4.39554455 L20.1032178,2.52772277 C20.1032178,1.1539604 18.984901,0.0363861386 17.6106436,0.0363861386 L17.4935644,0.0363861386 L4.29826733,4.31287129 L4.0509901,4.31287129 C2.26782178,4.31287129 0.817326733,5.76386139 0.817326733,7.54752475 L0.817326733,12.6799505 C1.26287129,12.3388614 1.76287129,12.0665842 2.30247525,11.8782178 L2.30247525,7.54752475 C2.30247525,6.58118812 3.08564356,5.7980198 4.0509901,5.7980198 L19.389604,5.7980198 C20.3559406,5.7980198 21.1381188,6.58118812 21.1381188,7.54752475 L21.1381188,8.4960396 L18.4368812,8.4960396 C17.4386139,8.4960396 16.6264851,9.30816832 16.6264851,10.3061881 L16.6264851,13.7824257 C16.6264851,14.7809406 17.4386139,15.5930693 18.4368812,15.5930693 L21.1383663,15.5930693 L21.1383663,16.5415842 C21.1383663,17.5076733 20.3561881,18.2910891 19.3898515,18.2910891 L9.24158416,18.2910891 C9.1019802,18.8227723 8.88143564,19.3222772 8.59554455,19.7762376 L19.3898515,19.7762376 C21.1732673,19.7762376 22.6235149,18.3252475 22.6235149,16.5415842 L22.6235149,15.5930693 L23.0972772,15.5930693 C24.0955446,15.5930693 24.9076733,14.7809406 24.9076733,13.7824257 L24.9076733,10.3061881 C24.9076733,9.30816832 24.0955446,8.4960396 23.0972772,8.4960396 Z M23.4225248,13.7824257 C23.4225248,13.9621287 23.2764851,14.1079208 23.0972772,14.1079208 L18.4368812,14.1079208 C18.2574257,14.1079208 18.1116337,13.9618812 18.1116337,13.7824257 L18.1116337,10.3061881 C18.1116337,10.1269802 18.2576733,9.98118812 18.4368812,9.98118812 L23.0972772,9.98118812 C23.2767327,9.98118812 23.4225248,10.1269802 23.4225248,10.3061881 L23.4225248,13.7824257 Z" id="Shape"></path>
                    <path d="M4.06361386,13.0643564 C1.93118812,13.0643564 0.196039604,14.799505 0.196039604,16.9321782 C0.196039604,19.064604 1.93118812,20.7997525 4.06361386,20.7997525 C6.19653465,20.7997525 7.93168317,19.064604 7.93168317,16.9321782 C7.93168317,14.799505 6.19653465,13.0643564 4.06361386,13.0643564 Z M3.55742574,19.4480198 L1.22054455,17.1108911 L2.27054455,16.0608911 L3.55742574,17.3477723 L5.85717822,15.0482673 L6.90717822,16.0982673 L3.55742574,19.4480198 Z" id="Shape"></path>
                </g>
            </g>
        </g>
    </g>
</svg>
